X:1
T:James Gibb editions
T:Psalm 13 (Becker) - Schütz
%%score [ ( 1 2 ) ( 3 4 ) ]
L:1/8
Q:1/4=108
M:2/2
K:F
V:1 treble nm="Soprano Alto"
V:2 treble 
V:3 bass nm="Tenor Bass"
V:4 bass 
V:1
"^Cornelius Becker\n(1561-1604)""^Psalm 13, SWV 109""^Heinrich Schütz\n(1585-1672)" d4 A4 | %1
w: ~Ach Herr,|
w: wie lang,|
 A2 c4 B2 | A2 G2 F4 | D4 F4 | G2 A4 c2 | B2 B2 A4 :|[M:2/2] f4 e4 | f2 d4 f2 | e2 e2 d4 | d4 c4 | %10
w: wie lang willst|du denn noch|so ganz|und gar ver-|ges- sen mein,|Wie lang|soll mein Seel|äng- sten sich|und mein|
w: wa- rum ver-|birgst du doch|vor mir|der Gna- den|Ant- Iitz dein?|||||
 =F2 c4 B2 | c2 B2 A4 | d4 c4 | d2 B4 d2 | c2 c2 B4 | F4 B4 | c2 d4 B2 | (c4 d2 A2- | %18
w: Herz sor- gen|im- mer- zu,|wie lang|soll mein Feind|trot- zig- lich|mir zu-|fü- gen so|viel * *|
w: ||||||||
 A2 B2) c2 A2 | G8 |] %20
w: * * * Un-|ruh?|
w: ||
V:2
 F4 F4 | F2 E4 D2 | C2 C2 A,4 | B,4 D4 | E2 F4 E2 | G2 G2 ^F4 :|[M:2/2] A4 A4 | A2 G4 A2 | %8
 A2 A2 ^F4 | =F4 F4 | C2 F4 D2 | _E2 D2 D4 | F4 F4 | F2 _E4 F2 | F2 F2 F4 | D4 D4 | F2 F4 F2 | %17
 (F4 D2 F2- | F2 D2 _E2) D2 | D8 |] %20
V:3
 A,4 D4 | D2 C4 F,2 | F,2 E,2 F,4 | G,4 A,4 | C2 C4 A,2 | D2 D2 D4 :|[M:2/2] D4 ^C4 | D2 =B,4 D2 | %8
 D2 ^C2 D4 | D,4 A,4 | A,2 A,4 G,2 | G,2 G,2 ^F,4 | %12
"^2. Schau doch, erhör mich, Herr, mein Gott, erleucht mein Augen gnädiglich,\nauf daß ich nicht entschlaf im Tod und mein Feind darnach rühme sich,\ndaß er mein mächtig worden sei, wo du nicht hilfst dem Elend ab\nwird er d'rauf jubilieren frei, daß er mich ganz vertilget hab.\n\n3. Mein Hoffnung steht darauf allein, daß du so reich an Gnaden bist,\nmein Herz darob wird fröhlich sein, weil du mir hilfst zu jeder Frist.\nDafür will ich dich rühmen schon mit Psalmen und mit Lobgesang.\nDu, Herr, hast wohl an mir getan, des mußt du haben ewig Dank." B,4 A,4 | %13
 B,2 G,4 B,2 | B,2 A,2 B,4 | A,4 G,4 | A,2 B,4 D2 | (A,4 B,2 C2- | C2 B,A,) G,2 ^F,2 | G,8 |] %20
V:4
 D,4 D,4 | D,2 A,,4 B,,2 | F,,2 C,2 D,4 | G,,4 D,4 | C,2 F,4 A,2 | G,2 G,2 D,4 :|[M:2/2] D,4 A,4 | %7
 D,2 G,4 D,2 | A,2 A,2 D,4 | B,,4 F,4 | F,2 F,4 G,2 | C,2 G,,2 D,4 | B,,4 F,4 | B,,2 _E,4 B,,2 | %14
 F,2 F,2 B,,4 | D,4 G,4 | F,2 B,,4 B,,2 | (F,4 B,2 F,2- | F,2 G,2) C,2 D,2 | G,,8 |] %20

